img/menu/m-icons-cat12.svg

<svg width="24" height="24" viewBox="0 0 24 24" fill="none" xmlns="http://www.w3.org/2000/svg">
<path fill-rule="evenodd" clip-rule="evenodd" d="M11 6H17C18.1046 6 19 6.89543 19 8V9C19 10.1046 18.1046 11 17 11H15H11C9.89543 11 9 10.1046 9 9V8.5V8C9 6.89543 9.89543 6 11 6ZM7.12602 10C7.57006 11.7252 9.13616 13 11 13H13V13.1716C13 13.702 13.2107 14.2107 13.5858 14.5858C14.3668 15.3668 14.3668 16.6332 13.5858 17.4142C13.2107 17.7893 13 18.298 13 18.8284V19C13 20.1046 13.8954 21 15 21H17C18.1046 21 19 20.1046 19 19V13C19 12.8275 18.9782 12.6602 18.9371 12.5005C20.1673 11.8183 21 10.5064 21 9V8C21 5.79086 19.2091 4 17 4L11 4C9.13616 4 7.57006 5.27477 7.12602 7H5.5C4.84689 7 4.29127 7.4174 4.08535 8H3.5C3.22386 8 3 8.22386 3 8.5C3 8.77614 3.22386 9 3.5 9H4.08535C4.29127 9.5826 4.84689 10 5.5 10H7.12602ZM13 7.5C13 7.22386 13.2239 7 13.5 7H17.5C17.7761 7 18 7.22386 18 7.5C18 7.77614 17.7761 8 17.5 8H13.5C13.2239 8 13 7.77614 13 7.5Z" fill="#034899"/>
</svg>

<svg width="24" height="24" fill="none" xmlns="http://www.w3.org/2000/svg"><path fill-rule="evenodd" clip-rule="evenodd" d="M11 6h6a2 2 0 0 1 2 2v1a2 2 0 0 1-2 2h-6a2 2 0 0 1-2-2V8a2 2 0 0 1 2-2zm-3.874 4c.444 1.725 2.01 3 3.874 3h2v.172a2 2 0 0 0 .586 1.414 2 2 0 0 1 0 2.828A2 2 0 0 0 13 18.828V19a2 2 0 0 0 2 2h2a2 2 0 0 0 2-2v-6c0-.172-.022-.34-.063-.5A3.999 3.999 0 0 0 21 9V8a4 4 0 0 0-4-4h-6a4.002 4.002 0 0 0-3.874 3H5.5a1.5 1.5 0 0 0-1.415 1H3.5a.5.5 0 0 0 0 1h.585A1.5 1.5 0 0 0 5.5 10h1.626zM13 7.5a.5.5 0 0 1 .5-.5h4a.5.5 0 0 1 0 1h-4a.5.5 0 0 1-.5-.5z" fill="#034899"/></svg>
